icons/modern/olive.svg

<svg width="32" height="32" viewBox="0 0 32 32" fill="none" xmlns="http://www.w3.org/2000/svg">
<path d="M25.2672 6.72412C31.0672 12.5241 31.6172 21.3641 26.4972 26.4841C21.3772 31.6041 12.5372 31.0541 6.73717 25.2541C0.937172 19.4541 0.387173 10.6141 5.50717 5.50412C10.6272 0.394116 19.4672 0.934116 25.2672 6.72412Z" fill="#6FA352"/>
<path d="M25.2672 6.72412C31.0672 12.5241 31.6172 21.3641 26.4972 26.4841C21.3772 31.6041 12.5372 31.0541 6.73717 25.2541C0.937172 19.4541 0.387173 10.6141 5.50717 5.50412C10.6272 0.394116 19.4672 0.934116 25.2672 6.72412Z" fill="url(#paint0_radial_18_29604)"/>
<path d="M25.2672 6.72412C31.0672 12.5241 31.6172 21.3641 26.4972 26.4841C21.3772 31.6041 12.5372 31.0541 6.73717 25.2541C0.937172 19.4541 0.387173 10.6141 5.50717 5.50412C10.6272 0.394116 19.4672 0.934116 25.2672 6.72412Z" fill="url(#paint1_radial_18_29604)"/>
<path d="M15.7868 10.0664C13.668 9.1814 12.3481 7.23644 12.8604 5.70964C13.3641 4.19257 15.4915 3.67715 17.619 4.55239C19.7464 5.42762 21.0577 7.38231 20.5453 8.9091C20.033 10.4359 17.9142 10.9513 15.7868 10.0664Z" fill="url(#paint2_radial_18_29604)"/>
<path d="M7.88662 13.7604C9.81951 14.8388 12.3458 13.9933 13.5292 11.8721C14.7126 9.75085 14.105 7.15709 12.1722 6.07875C10.2393 5.00041 7.71301 5.84585 6.5296 7.96709C5.34618 10.0883 5.95374 12.6821 7.88662 13.7604Z" fill="#DB2956"/>
<path d="M7.88662 13.7604C9.81951 14.8388 12.3458 13.9933 13.5292 11.8721C14.7126 9.75085 14.105 7.15709 12.1722 6.07875C10.2393 5.00041 7.71301 5.84585 6.5296 7.96709C5.34618 10.0883 5.95374 12.6821 7.88662 13.7604Z" fill="url(#paint3_radial_18_29604)"/>
<defs>
<radialGradient id="paint0_radial_18_29604" cx="0" cy="0" r="1" gradientUnits="userSpaceOnUse" gradientTransform="translate(22 12.25) rotate(109.654) scale(20.4408 24.43)">
<stop stop-color="#91D060"/>
<stop offset="0.458248" stop-color="#6DAB32"/>
<stop offset="1" stop-color="#708D5D"/>
</radialGradient>
<radialGradient id="paint1_radial_18_29604" cx="0" cy="0" r="1" gradientUnits="userSpaceOnUse" gradientTransform="translate(14 4.5) rotate(86.1526) scale(42.8466 108.581)">
<stop stop-color="#596570" stop-opacity="0"/>
<stop offset="0.311144" stop-color="#5C6775" stop-opacity="0"/>
<stop offset="0.698189" stop-color="#616A7D"/>
</radialGradient>
<radialGradient id="paint2_radial_18_29604" cx="0" cy="0" r="1" gradientUnits="userSpaceOnUse" gradientTransform="translate(17.875 14.25) rotate(-104.412) scale(11.551 12.5002)">
<stop stop-color="#C8E4BE" stop-opacity="0"/>
<stop offset="0.436719" stop-color="#C8E4BE" stop-opacity="0"/>
<stop offset="0.83233" stop-color="#C8E4BE"/>
</radialGradient>
<radialGradient id="paint3_radial_18_29604" cx="0" cy="0" r="1" gradientUnits="userSpaceOnUse" gradientTransform="translate(9.1875 10.25) rotate(-33.6901) scale(4.28159 3.90141)">
<stop stop-color="#E63B5F"/>
<stop offset="1" stop-color="#CC1138"/>
</radialGradient>
</defs>
</svg>

<svg width="32" height="32" fill="none" xmlns="http://www.w3.org/2000/svg"><path d="M25.267 6.724c5.8 5.8 6.35 14.64 1.23 19.76-5.12 5.12-13.96 4.57-19.76-1.23-5.8-5.8-6.35-14.64-1.23-19.75 5.12-5.11 13.96-4.57 19.76 1.22Z" fill="#6FA352"/><path d="M25.267 6.724c5.8 5.8 6.35 14.64 1.23 19.76-5.12 5.12-13.96 4.57-19.76-1.23-5.8-5.8-6.35-14.64-1.23-19.75 5.12-5.11 13.96-4.57 19.76 1.22Z" fill="url(#a)"/><path d="M25.267 6.724c5.8 5.8 6.35 14.64 1.23 19.76-5.12 5.12-13.96 4.57-19.76-1.23-5.8-5.8-6.35-14.64-1.23-19.75 5.12-5.11 13.96-4.57 19.76 1.22Z" fill="url(#b)"/><path d="M15.787 10.066c-2.119-.885-3.439-2.83-2.927-4.356.504-1.517 2.632-2.033 4.759-1.158 2.127.876 3.439 2.83 2.926 4.357-.512 1.527-2.63 2.042-4.758 1.157Z" fill="url(#c)"/><path d="M7.887 13.76c1.933 1.079 4.459.233 5.642-1.888 1.184-2.121.576-4.715-1.357-5.793C10.24 5 7.713 5.846 6.53 7.967c-1.184 2.121-.576 4.715 1.357 5.793Z" fill="#DB2956"/><path d="M7.887 13.76c1.933 1.079 4.459.233 5.642-1.888 1.184-2.121.576-4.715-1.357-5.793C10.24 5 7.713 5.846 6.53 7.967c-1.184 2.121-.576 4.715 1.357 5.793Z" fill="url(#d)"/><defs><radialGradient id="a" cx="0" cy="0" r="1" gradientUnits="userSpaceOnUse" gradientTransform="rotate(109.654 6.684 13.877) scale(20.4408 24.43)"><stop stop-color="#91D060"/><stop offset=".458" stop-color="#6DAB32"/><stop offset="1" stop-color="#708D5D"/></radialGradient><radialGradient id="b" cx="0" cy="0" r="1" gradientUnits="userSpaceOnUse" gradientTransform="matrix(2.87498 42.75004 -108.3363 7.28571 14 4.5)"><stop stop-color="#596570" stop-opacity="0"/><stop offset=".311" stop-color="#5C6775" stop-opacity="0"/><stop offset=".698" stop-color="#616A7D"/></radialGradient><radialGradient id="c" cx="0" cy="0" r="1" gradientUnits="userSpaceOnUse" gradientTransform="rotate(-104.412 14.463 .194) scale(11.551 12.5002)"><stop stop-color="#C8E4BE" stop-opacity="0"/><stop offset=".437" stop-color="#C8E4BE" stop-opacity="0"/><stop offset=".832" stop-color="#C8E4BE"/></radialGradient><radialGradient id="d" cx="0" cy="0" r="1" gradientUnits="userSpaceOnUse" gradientTransform="matrix(3.5625 -2.375 2.16411 3.24617 9.188 10.25)"><stop stop-color="#E63B5F"/><stop offset="1" stop-color="#CC1138"/></radialGradient></defs></svg>
